frontend/public/svg/interface/move.svg

<svg width="160" height="157" viewBox="0 0 160 157" fill="none" xmlns="http://www.w3.org/2000/svg">
<g clip-path="url(#clip0)">
<path d="M141.983 55.3211C139.959 53.1238 137.418 51.3916 134.959 49.7159C134.47 49.3824 133.985 49.0503 133.501 48.7149C132.887 48.2887 132.073 48.3969 131.138 48.5202C130.707 48.578 130.219 48.6434 129.706 48.6648C129.59 48.6695 129.478 48.7041 129.38 48.7654C129.282 48.8267 129.201 48.9125 129.146 49.0142C129.091 49.116 129.064 49.2303 129.066 49.3459C129.069 49.4615 129.102 49.5746 129.162 49.6738C129.786 50.7118 130.361 51.6984 130.91 52.6385C132.063 54.612 133.152 56.4766 134.338 58.2263C135.421 59.8235 136.61 61.3753 137.762 62.8759C138.605 63.9788 139.478 65.1145 140.297 66.2557C140.89 67.0829 141.56 67.864 142.208 68.6191C143.453 69.9238 144.49 71.412 145.283 73.0313L145.099 73.1676C144.958 73.2746 144.781 73.407 144.757 73.4232C127.736 73.8086 109.683 74.1946 86.2328 74.674C86.1926 74.6513 86.1329 74.6091 86.0907 74.5806L85.9693 74.4988C85.8584 74.4242 85.7526 74.3425 85.6513 74.2549V62.1377C85.6513 51.2684 85.65 40.3791 85.6481 29.47C85.6481 27.6881 85.6423 25.9064 85.6312 24.1249C85.6195 21.4689 85.6072 18.8128 85.6169 16.1859C85.6883 16.0405 85.7733 15.902 85.8707 15.7721L85.9401 15.6696C86.323 15.9291 86.7072 16.1795 87.0908 16.4325C88.3005 17.2299 89.5517 18.0544 90.6887 18.9549C95.7618 22.9707 101.542 25.8966 107.132 28.7304C108.599 29.4732 110.065 30.216 111.521 30.9783C111.905 31.2148 112.333 31.3699 112.78 31.434C113.226 31.4982 113.681 31.47 114.117 31.3514C114.485 31.2165 114.821 31.0072 115.104 30.7363C115.388 30.4655 115.611 30.139 115.763 29.7775C115.798 29.704 115.82 29.6248 115.828 29.5433C115.832 29.4901 115.843 29.4363 115.852 29.3831C115.92 29.1211 115.911 28.8454 115.827 28.5883L115.716 28.2963C115.526 27.7227 115.266 27.175 114.941 26.6661C107.826 16.4196 98.0423 8.85047 88.5276 2.19611C84.966 -0.295778 81.3888 -0.189327 77.9032 2.51146C77.4891 2.83195 77.0673 3.14264 76.6454 3.4534C75.8212 4.06064 74.9685 4.68603 74.1793 5.38669C73.1072 6.33821 72.0305 7.28372 70.948 8.22312C67.7239 11.0381 64.3892 13.9491 61.3098 17.0287C57.7404 20.5969 54.3658 24.4577 51.1001 28.192C50.4663 28.9173 49.8319 29.6419 49.1967 30.3659L49.011 30.5728C48.2972 31.363 46.9622 32.8338 48.6457 34.8592C48.7292 34.9596 48.8404 35.0335 48.9654 35.0713C49.0905 35.1091 49.224 35.1094 49.3492 35.0721C51.9211 34.3059 53.968 32.68 55.9473 31.1081C56.8624 30.3815 57.808 29.6309 58.7776 28.9912C61.4436 27.2344 64.0155 25.2616 66.5006 23.3523C67.1522 22.8527 67.8044 22.3537 68.4573 21.8555C69.5437 21.0302 70.5541 20.1577 71.623 19.2345C73.2565 17.7652 74.9854 16.405 76.798 15.1623C76.8304 15.3011 76.8628 15.4335 76.8927 15.5607C77.04 16.0448 77.1211 16.5466 77.1335 17.0527C76.7973 23.188 76.5656 29.4291 76.3424 35.4639C75.8634 48.3911 75.3689 61.7529 73.8113 74.7434C67.232 76.3063 48.0661 77.4682 20.9641 77.9412C19.8042 77.9405 18.6453 77.8808 17.4915 77.7628C17.1293 77.7336 16.7516 77.7031 16.3537 77.6719C16.57 77.3372 16.7747 77.0167 16.9677 76.7098C17.5751 75.7036 18.2416 74.7343 18.9639 73.8073C23.081 68.7709 25.6485 62.8728 27.8096 57.25C28.0956 56.3371 28.2271 55.3828 28.1989 54.4265C28.2164 53.8965 28.236 53.297 28.2944 52.6424C28.3047 52.5264 28.2845 52.4097 28.2356 52.304C28.1868 52.1982 28.1112 52.1071 28.0162 52.0396C27.9212 51.9721 27.8102 51.9308 27.6942 51.9196C27.5783 51.9083 27.4615 51.9276 27.3553 51.9754C26.8205 52.2174 26.3318 52.401 25.8996 52.5639C25.1284 52.7837 24.4121 53.163 23.7969 53.6772C16.7365 60.4823 10.1834 67.7939 4.18995 75.5544C0.4038 80.533 0.452545 83.8676 4.37628 88.2999C9.35333 93.9208 13.876 98.6619 18.2034 102.793C20.138 104.64 22.5704 105.964 24.9229 107.245C25.3223 107.461 25.7188 107.678 26.1125 107.896C26.4905 108.14 26.9142 108.304 27.3577 108.378C27.8012 108.452 28.255 108.434 28.6915 108.327C29.1344 108.166 29.5402 107.917 29.8839 107.595C30.2276 107.273 30.5023 106.884 30.691 106.452C30.7449 106.349 30.7708 106.233 30.766 106.117C30.7612 106 30.726 105.887 30.6637 105.788C30.2568 105.143 29.8487 104.467 29.4307 103.777C28.4338 102.059 27.3486 100.395 26.1794 98.7891C25.0936 97.3488 23.8747 95.9916 22.6962 94.6785C21.8272 93.7112 20.929 92.7108 20.1002 91.6949C19.5694 91.0461 18.9783 90.4305 18.4065 89.8381C17.1318 88.6697 16.0811 87.2788 15.3063 85.7334L15.4316 85.7036C15.7988 85.5933 16.1788 85.5304 16.5621 85.5167C28.404 85.821 40.4049 85.2637 52.0119 84.7233C57.8625 84.4508 63.9123 84.1686 69.863 84.0019C70.6956 84.0045 71.5269 84.072 72.3498 84.2037C72.603 84.2374 72.8606 84.2718 73.1247 84.3036C72.9268 88.0891 72.6971 91.9109 72.4757 95.6134C71.5555 110.883 70.6054 126.657 71.7859 142.861C71.3128 142.54 70.8695 142.234 70.4483 141.944C69.0206 140.962 67.7914 140.115 66.5207 139.381C58.7399 134.891 50.797 130.394 43.9626 126.531C42.8081 125.879 41.8625 125.729 41.0701 126.077C40.2997 126.413 39.7618 127.205 39.4723 128.43C39.4501 128.524 39.4483 128.621 39.4673 128.715C39.4862 128.809 39.5254 128.899 39.582 128.976C39.719 129.163 39.8546 129.365 39.9941 129.571C40.3352 130.102 40.7173 130.606 41.137 131.077C49.0113 139.599 57.7841 147.244 67.3027 153.881C69.9292 155.703 72.5186 156.614 75.1074 156.614C77.9032 156.535 80.6062 155.596 82.8484 153.924C87.9357 150.421 93.3281 146.645 98.4168 142.403C101.007 140.124 103.42 137.649 105.631 135C106.301 134.237 106.97 133.475 107.647 132.725C108.144 132.106 108.526 131.403 108.774 130.65C108.895 130.347 109.015 130.041 109.155 129.751C109.222 129.61 109.238 129.45 109.2 129.299C109.162 129.148 109.072 129.015 108.946 128.923C107.007 127.512 105.517 128.214 104.273 128.982C99.3007 132.054 94.3269 135.12 89.3518 138.183L81.0274 143.308C81.1857 141.468 81.3447 139.665 81.5018 137.887C81.9372 132.943 82.3454 128.275 82.6907 123.559C82.9347 120.203 83.1248 116.79 83.3092 113.49C83.4896 110.253 83.6758 106.905 83.9127 103.62C84.1074 100.905 84.147 98.1449 84.1846 95.4746C84.158 91.5236 84.3793 87.5753 84.8466 83.6529C85.0413 83.577 85.2204 83.5004 85.3898 83.4297C85.7149 83.2617 86.066 83.1494 86.4282 83.0975C105.162 82.6745 123.666 82.2879 145.686 81.837H145.69C145.69 81.8662 145.69 81.8973 145.69 81.9317C145.694 82.0167 145.698 82.1121 145.704 82.221C145.235 82.7245 144.755 83.2435 144.265 83.7735C142.97 85.1729 141.632 86.6203 140.255 88.0476C135.612 92.862 132.002 98.4277 128.792 103.723C128.301 104.535 127.839 105.492 128.139 106.442C128.268 106.786 128.471 107.098 128.734 107.356C128.997 107.614 129.313 107.811 129.66 107.934C129.784 107.99 129.922 108.005 130.056 107.977C130.186 107.953 130.315 107.939 130.445 107.924C130.836 107.907 131.218 107.806 131.565 107.625C141.398 101.768 149.262 93.8754 156.295 86.2161C160.066 82.1108 160.189 77.1581 156.634 72.6272C151.635 66.257 146.842 60.5936 141.983 55.3211Z" fill="black"/>
</g>
<defs>
<clipPath id="clip0">
<rect width="159" height="157" fill="white" transform="translate(0.777344)"/>
</clipPath>
</defs>
</svg>

<svg xmlns="http://www.w3.org/2000/svg" width="160" height="157" fill="none" viewBox="0 0 160 157"><g clip-path="url(#a)"><path fill="#000" d="M141.983 55.321c-2.024-2.197-4.565-3.93-7.024-5.605q-.733-.5-1.458-1.001c-.614-.426-1.428-.318-2.363-.195a16 16 0 0 1-1.432.145.664.664 0 0 0-.544 1.009c.624 1.038 1.199 2.024 1.748 2.965 1.153 1.973 2.242 3.838 3.428 5.587 1.083 1.598 2.272 3.15 3.424 4.65.843 1.103 1.716 2.239 2.535 3.38.593.827 1.263 1.608 1.911 2.363a17.6 17.6 0 0 1 3.075 4.412l-.184.137c-.141.107-.318.239-.342.255-17.021.386-35.074.772-58.524 1.251-.04-.023-.1-.065-.142-.093l-.122-.082a3 3 0 0 1-.318-.244V62.138l-.003-32.668q0-2.673-.017-5.345c-.011-2.656-.024-5.312-.014-7.94a2.6 2.6 0 0 1 .254-.413l.07-.102c.382.26.766.51 1.15.763 1.21.797 2.46 1.621 3.598 2.522 5.073 4.016 10.853 6.942 16.443 9.775 1.467.743 2.933 1.486 4.389 2.248a3.3 3.3 0 0 0 2.596.373 2.84 2.84 0 0 0 1.646-1.573.7.7 0 0 0 .065-.235c.004-.053.015-.107.024-.16a1.4 1.4 0 0 0-.025-.795l-.111-.292a7.3 7.3 0 0 0-.775-1.63C107.826 16.42 98.042 8.85 88.528 2.196c-3.562-2.492-7.14-2.385-10.625.315-.414.32-.836.632-1.258.942-.824.608-1.676 1.233-2.466 1.934a386 386 0 0 1-3.231 2.836c-3.224 2.815-6.559 5.726-9.638 8.806-3.57 3.568-6.944 7.429-10.21 11.163l-1.903 2.174-.186.207c-.714.79-2.049 2.26-.365 4.286a.67.67 0 0 0 .703.213c2.572-.766 4.619-2.392 6.598-3.964.915-.727 1.861-1.477 2.83-2.117 2.667-1.757 5.239-3.73 7.724-5.639q.977-.75 1.956-1.497c1.087-.825 2.097-1.697 3.166-2.62a50 50 0 0 1 5.175-4.073l.095.399c.147.484.228.986.24 1.492-.336 6.135-.567 12.376-.79 18.41-.48 12.928-.974 26.29-2.532 39.28-6.579 1.563-25.745 2.725-52.847 3.198q-1.741 0-3.472-.178l-1.138-.091q.323-.502.614-.962a30 30 0 0 1 1.996-2.903c4.117-5.036 6.685-10.934 8.846-16.557a8.6 8.6 0 0 0 .389-2.824c.017-.53.037-1.129.095-1.784a.666.666 0 0 0-.939-.667c-.535.242-1.023.426-1.455.589a5.7 5.7 0 0 0-2.103 1.113A201 201 0 0 0 4.19 75.554C.404 80.533.453 83.868 4.376 88.3c4.977 5.62 9.5 10.362 13.827 14.493 1.935 1.847 4.367 3.171 6.72 4.452q.6.324 1.19.651a3.3 3.3 0 0 0 2.579.431 3.5 3.5 0 0 0 1.999-1.875.67.67 0 0 0-.027-.664c-.407-.645-.815-1.321-1.233-2.011a58 58 0 0 0-3.252-4.988c-1.085-1.44-2.304-2.797-3.483-4.11-.869-.968-1.767-1.968-2.596-2.984-.53-.649-1.122-1.264-1.694-1.857a14.2 14.2 0 0 1-3.1-4.105l.126-.03c.367-.11.747-.173 1.13-.186 11.842.304 23.843-.253 35.45-.794 5.85-.272 11.9-.554 17.851-.721q1.251.004 2.487.202.379.05.775.1c-.198 3.785-.428 7.607-.65 11.31-.92 15.269-1.87 31.043-.69 47.247q-.706-.482-1.337-.917c-1.427-.982-2.657-1.829-3.927-2.563-7.781-4.49-15.724-8.987-22.558-12.85-1.155-.652-2.1-.802-2.893-.454-.77.336-1.308 1.128-1.598 2.353a.67.67 0 0 0 .11.546c.137.187.273.389.412.595q.512.798 1.143 1.506a161 161 0 0 0 26.166 22.804c2.626 1.822 5.216 2.733 7.804 2.733a13.6 13.6 0 0 0 7.741-2.69c5.088-3.503 10.48-7.279 15.569-11.521A67 67 0 0 0 105.63 135c.67-.763 1.339-1.525 2.016-2.275a6.6 6.6 0 0 0 1.127-2.075c.121-.303.241-.609.381-.899a.67.67 0 0 0-.209-.828c-1.939-1.411-3.429-.709-4.673.059q-7.458 4.607-14.921 9.201l-8.325 5.125c.159-1.84.318-3.643.475-5.421.435-4.944.843-9.612 1.189-14.328.244-3.356.434-6.769.618-10.069.18-3.237.367-6.585.604-9.87.194-2.715.234-5.475.272-8.145a95 95 0 0 1 .662-11.822c.194-.076.373-.153.543-.223.325-.168.676-.28 1.038-.333 18.734-.422 37.238-.81 59.258-1.26h.004v.095l.014.289q-.704.757-1.439 1.552c-1.295 1.4-2.633 2.847-4.01 4.275-4.643 4.814-8.253 10.38-11.463 15.675-.491.812-.953 1.769-.653 2.719a2.52 2.52 0 0 0 1.521 1.492.64.64 0 0 0 .396.043c.13-.024.259-.038.389-.053a2.7 2.7 0 0 0 1.12-.299c9.833-5.857 17.697-13.75 24.73-21.409 3.771-4.105 3.894-9.058.339-13.589-4.999-6.37-9.792-12.033-14.651-17.306"/></g><defs><clipPath id="a"><path fill="#fff" d="M.777 0h159v157h-159z"/></clipPath></defs></svg>
